app/images/dist/footer-photo-1.svg

<svg width="40" height="32" fill="none" xmlns="http://www.w3.org/2000/svg"><path d="M35.266 7.956c.026.35.026.698.026 1.046 0 10.65-8.106 22.922-22.92 22.922A22.762 22.762 0 010 28.306c.648.074 1.272.1 1.946.1 3.766 0 7.232-1.272 10.002-3.442a8.072 8.072 0 01-7.534-5.586c.498.074.998.124 1.522.124.722 0 1.448-.1 2.122-.274a8.054 8.054 0 01-6.46-7.906v-.1a8.129 8.129 0 003.64 1.022 8.044 8.044 0 01-3.592-6.708c0-1.496.398-2.868 1.096-4.064a22.914 22.914 0 0016.612 8.43c-.124-.6-.2-1.222-.2-1.846A8.052 8.052 0 0127.21 0c2.32 0 4.414.972 5.886 2.544A15.914 15.914 0 0038.208.598a8.041 8.041 0 01-3.542 4.44 16.146 16.146 0 004.638-1.248 17.29 17.29 0 01-4.038 4.166z" fill="#fff"/></svg>

<svg width="40" height="32" viewBox="0 0 40 32" fill="none" xmlns="http://www.w3.org/2000/svg">
<path d="M35.266 7.956C35.292 8.306 35.292 8.654 35.292 9.002C35.292 19.652 27.186 31.924 12.372 31.924C7.808 31.924 3.568 30.602 0 28.306C0.648 28.38 1.272 28.406 1.946 28.406C5.712 28.406 9.178 27.134 11.948 24.964C8.406 24.89 5.438 22.57 4.414 19.378C4.912 19.452 5.412 19.502 5.936 19.502C6.658 19.502 7.384 19.402 8.058 19.228C4.364 18.48 1.598 15.238 1.598 11.322V11.222C2.672 11.82 3.918 12.194 5.238 12.244C3.068 10.8 1.646 8.33 1.646 5.536C1.646 4.04 2.044 2.668 2.742 1.472C6.708 6.358 12.67 9.552 19.354 9.902C19.23 9.302 19.154 8.68 19.154 8.056C19.154 3.616 22.746 0 27.21 0C29.53 0 31.624 0.972 33.096 2.544C34.916 2.194 36.66 1.52 38.208 0.598C37.61 2.468 36.336 4.04 34.666 5.038C36.288 4.862 37.86 4.414 39.304 3.79C38.208 5.386 36.838 6.808 35.266 7.956Z" fill="white"/>
</svg>
